Dominus_Dark_Funeral/scalable/apps/octave.svg

<svg xmlns="http://www.w3.org/2000/svg" xmlns:xlink="http://www.w3.org/1999/xlink" viewBox="0 0 48 48"><defs><linearGradient id="c"><stop offset="0" stop-color="#5f8dd3"/><stop offset=".59" stop-color="#afc6e9"/><stop offset="1" stop-color="#025"/></linearGradient><linearGradient id="b"><stop offset="0"/><stop offset="1" stop-opacity="0"/></linearGradient><linearGradient id="a"><stop stop-color="#fff" offset="0"/><stop stop-color="#999" offset=".67"/><stop stop-color="#fff" offset="1"/></linearGradient><linearGradient xlink:href="#b" id="e" gradientUnits="userSpaceOnUse" x1="7.26" y1="1.85" x2="48.22" y2="31.37"/><linearGradient xlink:href="#c" id="d" x1="15.17" y1="44.78" x2="33.48" y2="-1.72" gradientUnits="userSpaceOnUse"/></defs><path fill="url(#d)" d="M24 .35c-5.83 0-10.52 1.12-13.93 3.33-4.1 2.66-6.27 6.9-6.27 12.27 0 7.23 5.8 16.88 7.58 19.67a54.47 54.47 0 0 0 6.25 8.16c2.54 2.64 4.57 3.87 6.37 3.87 1.8 0 3.83-1.23 6.37-3.87 2-2.08 4.22-4.97 6.25-8.16 1.78-2.79 7.58-12.44 7.58-19.67 0-5.37-2.16-9.62-6.26-12.27C34.52 1.47 29.84.35 24 .35z"/><path d="M30.17 43.95l.2-.17c2-2.08 4.22-4.97 6.25-8.16.73-1.15 2.26-3.9 3.68-6.74l.88-1.7c.79-1.75 1.54-3.62 2.09-5.5.57-1.96.93-3.92.93-5.73l-.02-.17-7.32-7.32-2 1.84-5.07-2.5-5.47-.8-4.22.6s-5.47 3.63-5.47 3.95c0 .33-1.45 5.87-1.45 5.87l-4.07 5.47z" opacity=".6" fill="url(#e)"/><path d="M24.49 5.38A13.29 13.18 0 0 0 11.2 18.56a13.29 13.18 0 0 0 13.29 13.18 13.29 13.18 0 0 0 13.28-13.18A13.29 13.18 0 0 0 24.5 5.38zm0 2.6a10.65 10.57 0 0 1 10.65 10.58 10.65 10.57 0 0 1-10.65 10.57 10.65 10.57 0 0 1-10.66-10.57A10.65 10.57 0 0 1 24.5 7.99z" fill="#dbe3e2" fill-rule="evenodd"/><path fill="#ff2a2a" fill-rule="evenodd" d="M9.11 15.94h7.12v6.95H9.11zM31.5 8.46h5.36v5.24H31.5zM30.23 25.25h4.54v4.44h-4.54z"/><path opacity=".5" d="M3.92 14.74c-.02.4-.13.78-.13 1.2 0 7.24 5.81 16.9 7.6 19.68a54.47 54.47 0 0 0 6.24 8.16c2.54 2.64 4.56 3.87 6.37 3.87 1.8 0 3.83-1.23 6.37-3.87 2-2.08 4.22-4.97 6.25-8.16 1.78-2.79 7.58-12.44 7.58-19.67 0-.43-.1-.8-.13-1.21a21.6 21.6 0 0 1-.8 4.94 43.2 43.2 0 0 1-2.2 5.77 69.59 69.59 0 0 1-4.45 8.17 54.46 54.46 0 0 1-6.25 8.16 17.98 17.98 0 0 1-3.46 2.93c-1.05.64-2 .94-2.91.94-.9 0-1.86-.3-2.9-.94-1.06-.64-2.2-1.6-3.47-2.93-2-2.08-4.22-4.97-6.25-8.16a69.6 69.6 0 0 1-4.46-8.17 43.19 43.19 0 0 1-2.19-5.77 21.6 21.6 0 0 1-.8-4.94z"/></svg>

<?xml version="1.0" encoding="UTF-8" standalone="no"?>
<svg
   xmlns:dc="http://purl.org/dc/elements/1.1/"
   xmlns:cc="http://creativecommons.org/ns#"
   xmlns:rdf="http://www.w3.org/1999/02/22-rdf-syntax-ns#"
   xmlns:svg="http://www.w3.org/2000/svg"
   xmlns="http://www.w3.org/2000/svg"
   xmlns:xlink="http://www.w3.org/1999/xlink"
   xmlns:sodipodi="http://sodipodi.sourceforge.net/DTD/sodipodi-0.dtd"
   xmlns:inkscape="http://www.inkscape.org/namespaces/inkscape"
   viewBox="0 0 48 48"
   version="1.1"
   id="svg35"
   sodipodi:docname="octave.svg"
   inkscape:version="0.92.4 (5da689c313, 2019-01-14)">
  <metadata
     id="metadata39">
    <rdf:RDF>
      <cc:Work
         rdf:about="">
        <dc:format>image/svg+xml</dc:format>
        <dc:type
           rdf:resource="http://purl.org/dc/dcmitype/StillImage" />
        <dc:title></dc:title>
      </cc:Work>
    </rdf:RDF>
  </metadata>
  <sodipodi:namedview
     pagecolor="#ffffff"
     bordercolor="#666666"
     borderopacity="1"
     objecttolerance="10"
     gridtolerance="10"
     guidetolerance="10"
     inkscape:pageopacity="0"
     inkscape:pageshadow="2"
     inkscape:window-width="1112"
     inkscape:window-height="480"
     id="namedview37"
     showgrid="false"
     inkscape:zoom="4.9166667"
     inkscape:cx="2.1355932"
     inkscape:cy="24"
     inkscape:window-x="0"
     inkscape:window-y="25"
     inkscape:window-maximized="0"
     inkscape:current-layer="svg35" />
  <defs
     id="defs23">
    <linearGradient
       id="c">
      <stop
         offset="0"
         stop-color="#5f8dd3"
         id="stop2" />
      <stop
         offset=".59"
         stop-color="#afc6e9"
         id="stop4" />
      <stop
         offset="1"
         stop-color="#025"
         id="stop6" />
    </linearGradient>
    <linearGradient
       id="b">
      <stop
         offset="0"
         id="stop9" />
      <stop
         offset="1"
         stop-opacity="0"
         id="stop11" />
    </linearGradient>
    <linearGradient
       id="a">
      <stop
         stop-color="#fff"
         offset="0"
         id="stop14" />
      <stop
         stop-color="#999"
         offset=".67"
         id="stop16" />
      <stop
         stop-color="#fff"
         offset="1"
         id="stop18" />
    </linearGradient>
    <linearGradient
       xlink:href="#b"
       id="e"
       gradientUnits="userSpaceOnUse"
       x1="7.26"
       y1="1.85"
       x2="48.22"
       y2="31.37" />
    <linearGradient
       xlink:href="#c"
       id="d"
       x1="15.17"
       y1="44.78"
       x2="33.48"
       y2="-1.72"
       gradientUnits="userSpaceOnUse" />
  </defs>
  <path
     d="m 24,0.35 c -5.83,0 -10.52,1.12 -13.93,3.33 -4.1,2.66 -6.27,6.9 -6.27,12.27 0,7.23 5.8,16.88 7.58,19.67 a 54.47,54.47 0 0 0 6.25,8.16 c 2.54,2.64 4.57,3.87 6.37,3.87 1.8,0 3.83,-1.23 6.37,-3.87 2,-2.08 4.22,-4.97 6.25,-8.16 C 38.4,32.83 44.2,23.18 44.2,15.95 44.2,10.58 42.04,6.33 37.94,3.68 34.52,1.47 29.84,0.35 24,0.35 Z"
     id="path25"
     style="fill:url(#d)"
     inkscape:connector-curvature="0" />
  <path
     d="m 30.17,43.95 0.2,-0.17 c 2,-2.08 4.22,-4.97 6.25,-8.16 0.73,-1.15 2.26,-3.9 3.68,-6.74 l 0.88,-1.7 c 0.79,-1.75 1.54,-3.62 2.09,-5.5 0.57,-1.96 0.93,-3.92 0.93,-5.73 L 44.18,15.78 36.86,8.46 34.86,10.3 29.79,7.8 24.32,7 20.1,7.6 c 0,0 -5.47,3.63 -5.47,3.95 0,0.33 -1.45,5.87 -1.45,5.87 l -4.07,5.47 z"
     id="path27"
     style="opacity:0.6;fill:url(#e)"
     inkscape:connector-curvature="0" />
  <path
     d="M 24.49,5.38 A 13.29,13.18 0 0 0 11.2,18.56 13.29,13.18 0 0 0 24.49,31.74 13.29,13.18 0 0 0 37.77,18.56 13.29,13.18 0 0 0 24.5,5.38 Z m 0,2.6 A 10.65,10.57 0 0 1 35.14,18.56 10.65,10.57 0 0 1 24.49,29.13 10.65,10.57 0 0 1 13.83,18.56 10.65,10.57 0 0 1 24.5,7.99 Z"
     id="path29"
     inkscape:connector-curvature="0"
     style="fill:#dbe3e2;fill-rule:evenodd" />
  <path
     d="m 9.11,15.94 h 7.12 v 6.95 H 9.11 Z M 31.5,8.46 h 5.36 V 13.7 H 31.5 Z m -1.27,16.79 h 4.54 v 4.44 h -4.54 z"
     id="path31"
     inkscape:connector-curvature="0"
     style="fill:#ff2a2a;fill-rule:evenodd" />
  <path
     d="m 3.92,14.74 c -0.02,0.4 -0.13,0.78 -0.13,1.2 0,7.24 5.81,16.9 7.6,19.68 a 54.47,54.47 0 0 0 6.24,8.16 c 2.54,2.64 4.56,3.87 6.37,3.87 1.8,0 3.83,-1.23 6.37,-3.87 2,-2.08 4.22,-4.97 6.25,-8.16 1.78,-2.79 7.58,-12.44 7.58,-19.67 0,-0.43 -0.1,-0.8 -0.13,-1.21 a 21.6,21.6 0 0 1 -0.8,4.94 43.2,43.2 0 0 1 -2.2,5.77 69.59,69.59 0 0 1 -4.45,8.17 54.46,54.46 0 0 1 -6.25,8.16 17.98,17.98 0 0 1 -3.46,2.93 c -1.05,0.64 -2,0.94 -2.91,0.94 -0.9,0 -1.86,-0.3 -2.9,-0.94 -1.06,-0.64 -2.2,-1.6 -3.47,-2.93 -2,-2.08 -4.22,-4.97 -6.25,-8.16 A 69.6,69.6 0 0 1 6.92,25.45 43.19,43.19 0 0 1 4.73,19.68 21.6,21.6 0 0 1 3.93,14.74 Z"
     id="path33"
     inkscape:connector-curvature="0"
     style="opacity:0.5" />
</svg>
